64x64/apps/emby-server.svg

<svg xmlns="http://www.w3.org/2000/svg" width="64" height="64" version="1.1">
 <path style="opacity:0.2" d="M 30.11262,4.999624 A 1.95371,1.95371 0 0 0 28.759404,5.5719428 L 14.805002,19.526346 a 1.95371,1.95371 0 0 0 0,2.762392 l 0.478203,0.478203 -10.7112621,10.711263 a 1.95371,1.95371 0 0 0 0,2.762392 L 18.526345,50.194998 a 1.95371,1.95371 0 0 0 2.762393,0 l 0.478203,-0.478202 10.711263,10.711262 a 1.95371,1.95371 0 0 0 2.762391,0 L 49.194998,46.473656 a 1.95371,1.95371 0 0 0 0,-2.762394 L 48.716795,43.23306 59.428058,32.521796 a 1.95371,1.95371 0 0 0 0,-2.76239 L 45.473654,15.805002 a 1.95371,1.95371 0 0 0 -2.762392,0 L 42.233059,16.283205 31.521796,5.5719428 A 1.95371,1.95371 0 0 0 30.11262,4.999624 Z"/>
 <path style="fill:#52b54a" d="M 30.11262,3.9999084 A 1.95371,1.95371 0 0 0 28.759404,4.5722272 L 14.805002,18.52663 a 1.95371,1.95371 0 0 0 0,2.762392 l 0.478203,0.478203 -10.7112621,10.711263 a 1.95371,1.95371 0 0 0 0,2.762392 L 18.526345,49.195282 a 1.95371,1.95371 0 0 0 2.762393,0 l 0.478203,-0.478202 10.711263,10.711262 a 1.95371,1.95371 0 0 0 2.762391,0 L 49.194998,45.47394 a 1.95371,1.95371 0 0 0 0,-2.762394 L 48.716795,42.233344 59.428058,31.52208 a 1.95371,1.95371 0 0 0 0,-2.76239 L 45.473654,14.805286 a 1.95371,1.95371 0 0 0 -2.762392,0 L 42.233059,15.283489 31.521796,4.5722272 A 1.95371,1.95371 0 0 0 30.11262,3.9999084 Z"/>
 <path style="opacity:0.2" transform="matrix(1.3422522,0,0,1.3459652,-109.02158,3.6303781)" d="M 114.00355,21.82028 99.848236,29.992854 V 13.647706 Z"/>
 <path style="fill:#f4f4f7" transform="matrix(1.3422522,0,0,1.3459652,-109.02158,2.6306625)" d="M 114.00355,21.82028 99.848236,29.992854 V 13.647706 Z"/>
 <path style="opacity:0.2;fill:#f4f4f7" d="M 30.113281 4 A 1.95371 1.95371 0 0 0 28.759766 4.5722656 L 14.804688 18.527344 A 1.95371 1.95371 0 0 0 14.300781 20.408203 A 1.95371 1.95371 0 0 1 14.804688 19.525391 L 28.759766 5.5722656 A 1.95371 1.95371 0 0 1 30.113281 5 A 1.95371 1.95371 0 0 1 31.521484 5.5722656 L 42.232422 16.283203 L 42.710938 15.804688 A 1.95371 1.95371 0 0 1 45.474609 15.804688 L 59.427734 29.759766 A 1.95371 1.95371 0 0 1 59.933594 30.642578 A 1.95371 1.95371 0 0 0 59.427734 28.759766 L 45.474609 14.804688 A 1.95371 1.95371 0 0 0 42.710938 14.804688 L 42.232422 15.283203 L 31.521484 4.5722656 A 1.95371 1.95371 0 0 0 30.113281 4 z M 14.783203 22.267578 L 4.5722656 32.478516 A 1.95371 1.95371 0 0 0 4.0664062 34.357422 A 1.95371 1.95371 0 0 1 4.5722656 33.478516 L 15.283203 22.767578 L 14.804688 22.289062 A 1.95371 1.95371 0 0 1 14.783203 22.267578 z M 49.216797 42.732422 L 48.716797 43.232422 L 49.195312 43.710938 A 1.95371 1.95371 0 0 1 49.699219 44.591797 A 1.95371 1.95371 0 0 0 49.216797 42.732422 z"/>
</svg>

<svg xmlns="http://www.w3.org/2000/svg" width="64" height="64"><path style="opacity:.2" d="M30.113 5a1.954 1.954 0 0 0-1.354.572L14.805 19.526a1.954 1.954 0 0 0 0 2.763l.478.478L4.572 33.478a1.954 1.954 0 0 0 0 2.763l13.954 13.954a1.954 1.954 0 0 0 2.763 0l.478-.478 10.711 10.711a1.954 1.954 0 0 0 2.763 0l13.954-13.954a1.954 1.954 0 0 0 0-2.763l-.478-.478 10.711-10.711a1.954 1.954 0 0 0 0-2.763L45.474 15.805a1.954 1.954 0 0 0-2.763 0l-.478.478L31.522 5.572A1.954 1.954 0 0 0 30.112 5z"/><path style="fill:#52b54a" d="M30.113 4a1.954 1.954 0 0 0-1.354.572L14.805 18.527a1.954 1.954 0 0 0 0 2.762l.478.478L4.572 32.478a1.954 1.954 0 0 0 0 2.763l13.954 13.954a1.954 1.954 0 0 0 2.763 0l.478-.478 10.711 10.711a1.954 1.954 0 0 0 2.763 0l13.954-13.954a1.954 1.954 0 0 0 0-2.762l-.478-.479 10.711-10.71a1.954 1.954 0 0 0 0-2.763L45.474 14.805a1.954 1.954 0 0 0-2.763 0l-.478.478-10.711-10.71A1.954 1.954 0 0 0 30.112 4z"/><path style="opacity:.2" transform="matrix(1.34225 0 0 1.34597 -109.022 3.63)" d="m114.004 21.82-14.156 8.173V13.648z"/><path style="fill:#f4f4f7" transform="matrix(1.34225 0 0 1.34597 -109.022 2.63)" d="m114.004 21.82-14.156 8.173V13.648z"/><path style="opacity:.2;fill:#f4f4f7" d="M30.113 4a1.954 1.954 0 0 0-1.353.572L14.805 18.527a1.954 1.954 0 0 0-.504 1.881 1.954 1.954 0 0 1 .504-.883L28.76 5.572A1.954 1.954 0 0 1 30.113 5a1.954 1.954 0 0 1 1.408.572l10.711 10.711.479-.478a1.954 1.954 0 0 1 2.764 0L59.428 29.76a1.954 1.954 0 0 1 .506.883 1.954 1.954 0 0 0-.506-1.883L45.475 14.805a1.954 1.954 0 0 0-2.764 0l-.479.478-10.71-10.71A1.954 1.954 0 0 0 30.112 4zm-15.33 18.268-10.21 10.21a1.954 1.954 0 0 0-.507 1.88 1.954 1.954 0 0 1 .506-.88l10.711-10.71-.478-.479a1.954 1.954 0 0 1-.022-.021zm34.434 20.464-.5.5.478.479a1.954 1.954 0 0 1 .504.88 1.954 1.954 0 0 0-.482-1.859z"/></svg>
